X:1
T:La bonne dame
C:Tapage, Jean-Claude Koffmann
R:bourree a trois temps
A:France
F:http://simonwascher.info
Z:abc transcription Helmut Eberl
M:3/8
L:1/16
K:Dm
A2FDEF | G3ABG | A2GFEG | F4D2 |\
A2FDEF | G3ABG |1 d2cBAG | F6 :|\
               [2 dcBAGF | G3ABc || 
d2BGBd | c2A2F2 | B2GABG | A4F2 |\
d2BGBd | c2A2F2 |1 BAGAG^F | G6 :|\
                [2 B2GA2^F | G6 :|
